public/assets/gear-bluepurple.svg

<svg width="238" height="238" viewBox="0 0 238 238" fill="none" xmlns="http://www.w3.org/2000/svg">
<g clip-path="url(#clip0_56_1628)">
<path d="M118.723 96.2458C98.0166 96.2458 81.2162 113.046 81.2162 133.767C81.2162 154.466 98.0166 171.296 118.723 171.296C139.429 171.296 156.111 154.466 156.111 133.767C156.111 113.046 139.436 96.2458 118.723 96.2458ZM193.921 155.311L187.162 171.592L200.813 198.397L184.094 215.116L156.666 202.162L140.385 208.847L132.121 234.147L131.062 237.505H107.436L97.2088 208.943L80.9272 202.229L54.085 215.82L37.3734 199.116L50.3128 171.674L43.606 155.407L15 146.069V122.451L43.5763 112.209L50.2832 95.9568L38.2627 72.2272L36.6768 69.1146L53.3661 52.4253L80.8308 65.3573L97.0903 58.6356L105.346 33.3497L106.413 30H130.039L140.273 58.5912L156.511 65.3128L183.39 51.6916L200.094 68.3809L187.155 95.8012L193.839 112.09L222.497 121.413V145.024L193.928 155.303L193.921 155.311Z" fill="#7D91EA"/>
</g>
<defs>
<clipPath id="clip0_56_1628">
<rect width="237.148" height="237.148" fill="white" transform="translate(0.523682 0.523743)"/>
</clipPath>
</defs>
</svg>

<svg width="238" height="238" fill="none" xmlns="http://www.w3.org/2000/svg"><g clip-path="url(#a)"><path d="M118.723 96.246c-20.706 0-37.507 16.8-37.507 37.521 0 20.699 16.8 37.529 37.507 37.529 20.706 0 37.388-16.83 37.388-37.529 0-20.721-16.675-37.521-37.388-37.521Zm75.198 59.065-6.759 16.281 13.651 26.805-16.719 16.719-27.428-12.954-16.281 6.685-8.264 25.3-1.059 3.358h-23.626l-10.227-28.562-16.282-6.714-26.842 13.591-16.712-16.704 12.94-27.442-6.707-16.267L15 146.069v-23.618l28.576-10.242 6.707-16.252-12.02-23.73-1.586-3.112 16.69-16.69L80.83 65.357l16.26-6.721 8.255-25.286 1.067-3.35h23.626l10.234 28.591 16.238 6.722 26.879-13.621 16.704 16.689-12.939 27.42 6.684 16.289 28.658 9.323v23.611l-28.569 10.279-.007.008Z" fill="#7D91EA"/></g><defs><clipPath id="a"><path fill="#fff" transform="translate(.524 .524)" d="M0 0h237.148v237.148H0z"/></clipPath></defs></svg>
